public/about-feature-06.svg

<svg width="101" height="101" viewBox="0 0 101 101" fill="none" xmlns="http://www.w3.org/2000/svg">
<g clip-path="url(#clip0_6511_2311)">
<g clip-path="url(#clip1_6511_2311)">
<g clip-path="url(#clip2_6511_2311)">
<mask id="mask0_6511_2311" style="mask-type:luminance" maskUnits="userSpaceOnUse" x="1" y="0" width="100" height="100">
<path d="M100.225 0.97998H1.38281V99.8217H100.225V0.97998Z" fill="white"/>
</mask>
<g mask="url(#mask0_6511_2311)">
<path d="M22.9541 70.1582C22.1367 69.4735 20.9191 69.5812 20.2346 70.3985L15.4074 76.1617L13.6628 74.6836C12.8493 73.9945 11.6313 74.0952 10.942 74.9087C10.2528 75.7222 10.3535 76.9405 11.167 77.6296L14.3929 80.3626C14.7429 80.6592 15.1856 80.8202 15.6409 80.8202C15.6956 80.8202 15.7504 80.8177 15.8054 80.813C16.3174 80.7692 16.791 80.5232 17.1209 80.1292L23.1949 72.8776C23.879 72.0603 23.7713 70.8429 22.9541 70.1582Z" fill="#3BB77E"/>
<path d="M63.0831 32.4084V38.1227C63.0831 38.837 60.2259 40.9799 59.5117 40.9799H46.6545C45.4639 40.7417 43.0831 40.6942 43.0831 42.4084V47.4084L40.2259 48.1227C39.5117 48.5989 38.0831 49.6942 38.0831 50.2656C38.0831 50.9799 37.3688 52.4084 38.0831 53.1227C38.7974 53.837 40.2258 54.5513 40.9401 55.2656C41.6544 55.9799 43.0831 55.2656 43.0831 55.9799V58.837C43.0831 59.4084 43.5592 60.9799 43.7972 61.6942C44.2734 62.1703 45.3687 63.1227 45.9401 63.1227C46.5115 63.1227 47.6068 63.5989 48.0829 63.837V65.9799C48.0829 66.5513 49.0354 68.1227 49.5115 68.837C50.2258 69.3132 51.9401 70.2656 53.0829 70.2656C54.5115 70.2656 66.6544 71.6942 68.7972 71.6942C70.5115 71.6942 76.1782 70.7417 78.7972 70.2656L83.7972 66.6942L90.9401 65.2656H95.2258L98.0829 63.837V60.2656L98.7972 45.2656L97.3687 42.4084H92.3687C91.7972 42.4084 89.2734 40.5037 88.0829 39.5513C87.1305 38.837 85.2258 37.2656 85.2258 36.6942C85.2258 36.1227 80.9401 34.0752 78.7972 33.1227L75.9401 32.4084H68.7972H65.2258H63.0831Z" fill="#FDC040"/>
<path d="M37.3672 12.4084V29.5513L43.0816 27.4084L45.2243 25.9799L52.3672 29.5513L54.51 27.4084L53.7958 13.837L51.6529 12.4084H44.51H37.3672Z" fill="#FDC040"/>
<path d="M63.0816 32.4084C63.0816 34.0752 63.0816 37.5513 63.0816 38.1227M63.0816 32.4084V38.1227M63.0816 32.4084H65.2243M63.0816 38.1227C63.0816 38.837 60.2245 40.9799 59.5102 40.9799M65.2243 32.4084H68.7958H75.9386L78.7958 33.1227C80.9386 34.0752 85.2243 36.1227 85.2243 36.6942C85.2243 37.2656 87.129 38.837 88.0815 39.5513C89.2719 40.5037 91.7958 42.4084 92.3672 42.4084M65.2243 32.4084H62.3672M59.5102 40.9799C58.9388 40.9799 50.7006 40.9799 46.653 40.9799M59.5102 40.9799H46.653M46.653 40.9799C45.4625 40.7417 43.0816 40.6942 43.0816 42.4084M43.0816 42.4084C43.0816 44.1227 43.0816 46.456 43.0816 47.4084M43.0816 42.4084V47.4084M43.0816 47.4084L40.2245 48.1227C39.5102 48.5989 38.0816 49.6942 38.0816 50.2656C38.0816 50.9799 37.3673 52.4084 38.0816 53.1227C38.7959 53.837 40.2243 54.5513 40.9386 55.2656C41.6529 55.9799 43.0816 55.2656 43.0816 55.9799M43.0816 55.9799C43.0816 56.6942 43.0816 58.1227 43.0816 58.837M43.0816 55.9799V58.837M43.0816 58.837C43.0816 59.4084 43.5578 60.9799 43.7958 61.6942C44.2719 62.1703 45.3672 63.1227 45.9386 63.1227C46.51 63.1227 47.6053 63.5989 48.0815 63.837M48.0815 63.837C48.0815 64.3132 48.0815 65.4084 48.0815 65.9799M48.0815 63.837V65.9799M48.0815 65.9799C48.0815 66.5513 49.0339 68.1227 49.51 68.837C50.2243 69.3132 51.9386 70.2656 53.0815 70.2656C54.51 70.2656 66.6529 71.6942 68.7958 71.6942C70.51 71.6942 76.1768 70.7417 78.7958 70.2656L83.7958 66.6942L90.9386 65.2656H95.2243L98.0815 63.837V60.2656L98.7958 45.2656L97.3672 42.4084M97.3672 42.4084C95.9386 42.4084 92.9386 42.4084 92.3672 42.4084M97.3672 42.4084H92.3672M37.3672 12.4084C37.3672 12.9799 37.3672 24.0752 37.3672 29.5513M37.3672 12.4084H44.51H51.6529L53.7958 13.837L54.51 27.4084L52.3672 29.5513L45.2243 25.9799L43.0816 27.4084L37.3672 29.5513M37.3672 12.4084V29.5513" stroke="black" stroke-width="1.42857" stroke-linecap="round" stroke-linejoin="round"/>
<path d="M96.1361 40.3834H93.3615C91.0377 40.276 89.1687 38.2967 87.0064 36.0063C85.5614 34.476 84.0143 32.8374 82.1505 31.623V15.1203C82.1505 12.2135 79.7857 9.84863 76.8791 9.84863H13.9112C11.0044 9.84863 8.63977 12.2135 8.63977 15.1203V28.5117C8.63977 29.578 9.50405 30.4423 10.5703 30.4423C11.6365 30.4423 12.5008 29.578 12.5008 28.5117V15.1203C12.5008 14.3558 13.1467 13.7096 13.9112 13.7096H35.274V30.7902C35.274 31.4919 35.6548 32.1384 36.2685 32.4787C36.56 32.6403 36.8824 32.7206 37.2043 32.7206C37.56 32.7206 37.9151 32.6224 38.2275 32.4272L45.3975 27.9459L52.5621 32.427C53.1574 32.799 53.9074 32.8192 54.5214 32.4789C55.1355 32.1387 55.5164 31.4923 55.5164 30.7903V13.7096H76.8794C77.6438 13.7096 78.2898 14.3556 78.2898 15.1203V29.9863C77.6618 29.8549 77.0025 29.7759 76.3054 29.7634C76.294 29.7633 76.2828 29.7633 76.2714 29.7633H71.3807H67.5821H65.3942C65.3841 29.7633 65.3744 29.7633 65.3643 29.7634C63.0371 29.7996 61.8413 30.8546 61.2478 31.7332C60.3268 33.0969 60.2415 34.9439 61.0068 36.9316C61.185 37.3957 61.4021 37.8347 61.6524 38.2473H47.0135C43.8684 38.2473 41.3094 40.8062 41.3094 43.9513C41.3094 44.598 41.4175 45.22 41.6162 45.8H41.1038C37.9587 45.8 35.3998 48.3589 35.3998 51.5043C35.3998 54.6496 37.9587 57.2085 41.1038 57.2085H41.6148C41.417 57.7869 41.3093 58.4069 41.3093 59.0517C41.3093 62.0986 43.7058 64.5956 46.711 64.7534C46.5113 65.3342 46.4027 65.9567 46.4027 66.6046C46.4027 69.75 48.9615 72.3089 52.1068 72.3089H76.0245C76.8483 72.3089 77.5981 72.2082 78.2893 72.0354V78.0846C78.2893 78.8522 77.6432 79.5005 76.8788 79.5005H32.1625C32.5413 78.1517 32.7483 76.7319 32.7483 75.2637C32.7483 66.6159 25.713 59.5803 17.0653 59.5803C15.4778 59.5803 13.9454 59.8193 12.5002 60.26V45.8683C12.5002 44.8022 11.6359 43.9379 10.5697 43.9379C9.50347 43.9379 8.63918 44.8022 8.63918 45.8683V62.0466C4.2807 64.8357 1.38281 69.7162 1.38281 75.2639C1.38281 83.9149 8.41814 90.9529 17.0658 90.9529C22.7537 90.9529 27.7434 87.9076 30.4933 83.3616H76.8794C79.786 83.3616 82.1508 80.9944 82.1508 78.0847V70.1363C82.577 69.8316 82.9845 69.5192 83.3797 69.2144C85.0845 67.9007 86.5568 66.7662 88.9011 66.7662H96.1362C98.3905 66.7662 100.225 64.9346 100.225 62.6832V44.472C100.225 42.2173 98.3905 40.3834 96.1361 40.3834ZM51.6554 27.3057L46.4217 24.0322C45.7955 23.6409 45.0011 23.6407 44.3747 24.032L39.135 27.3069V13.7096H51.6554V27.3057ZM17.0658 87.0919C10.5471 87.0919 5.24381 81.7859 5.24381 75.2639C5.24381 68.745 10.5471 63.4414 17.0658 63.4414C23.5845 63.4414 28.8878 68.745 28.8878 75.2639C28.8878 81.7859 23.5845 87.0919 17.0658 87.0919ZM96.3635 62.6832C96.3635 62.8016 96.2574 62.9052 96.1361 62.9052H88.901C85.2412 62.9052 83.0003 64.6323 81.0228 66.1562C79.3613 67.4367 78.0488 68.448 76.0247 68.448H52.1071C51.091 68.448 50.2641 67.6212 50.2641 66.6049C50.2641 65.5884 51.091 64.7616 52.1071 64.7616H58.5153C59.5815 64.7616 60.4458 63.8973 60.4458 62.831C60.4458 61.7649 59.5815 60.9006 58.5153 60.9006H47.0137C45.9972 60.9006 45.1707 60.0714 45.1707 59.0519C45.1707 58.0354 45.9975 57.2087 47.0137 57.2087H58.5153C59.5815 57.2087 60.4458 56.3444 60.4458 55.2782C60.4458 54.212 59.5815 53.3477 58.5153 53.3477H41.1041C40.0878 53.3477 39.261 52.5209 39.261 51.5044C39.261 50.488 40.0878 49.6612 41.1041 49.6612H58.5153C59.5815 49.6612 60.4458 48.7969 60.4458 47.7307C60.4458 46.6645 59.5815 45.8002 58.5153 45.8002H47.0137C45.9972 45.8002 45.1707 44.9709 45.1707 43.9516C45.1707 42.9352 45.9975 42.1084 47.0137 42.1084H68.5544H72.7443H75.5431C76.6092 42.1084 77.4735 41.2442 77.4735 40.178C77.4735 39.1117 76.6092 38.2474 75.5431 38.2474H72.7443H68.5544C66.7887 38.2474 65.241 37.1879 64.6108 35.5464C64.2437 34.5924 64.3437 34.0484 64.4478 33.894C64.5525 33.7392 64.9295 33.6336 65.4107 33.6244H71.3807H76.2537C79.5091 33.6896 81.7874 36.1027 84.1994 38.6572C86.7225 41.3296 89.3315 44.0929 93.2472 44.243C93.2718 44.244 93.2965 44.2444 93.3213 44.2444H96.1365C96.2597 44.2444 96.364 44.3486 96.364 44.4717L96.3635 62.6832Z" fill="#3BB77E"/>
<path d="M10.5711 39.1233C11.6374 39.1233 12.5016 38.2535 12.5016 37.1873C12.5016 36.1211 11.6374 35.2568 10.5711 35.2568C9.50492 35.2568 8.64062 36.1211 8.64062 37.1873V37.1984C8.64062 38.2644 9.50492 39.1233 10.5711 39.1233Z" fill="#3BB77E"/>
</g>
</g>
</g>
</g>
<defs>
<clipPath id="clip0_6511_2311">
<rect width="100" height="100" fill="white" transform="translate(0.222656 0.97998)"/>
</clipPath>
<clipPath id="clip1_6511_2311">
<rect width="100" height="100" fill="white" transform="translate(0.222656 0.97998)"/>
</clipPath>
<clipPath id="clip2_6511_2311">
<rect width="100" height="100" fill="white" transform="translate(0.222656 0.97998)"/>
</clipPath>
</defs>
</svg>

<svg xmlns="http://www.w3.org/2000/svg" width="101" height="101" fill="none"><g clip-path="url(#a)"><g clip-path="url(#b)"><g clip-path="url(#c)"><mask id="d" width="100" height="100" x="1" y="0" maskUnits="userSpaceOnUse" style="mask-type:luminance"><path fill="#fff" d="M100.225.98H1.383v98.842h98.842z"/></mask><g mask="url(#d)"><path fill="#3BB77E" d="M22.954 70.158a1.93 1.93 0 0 0-2.72.24l-4.827 5.764-1.744-1.478a1.93 1.93 0 0 0-2.496 2.946l3.226 2.733a1.93 1.93 0 0 0 2.728-.234l6.074-7.251a1.93 1.93 0 0 0-.24-2.72"/><path fill="#FDC040" d="M63.083 32.408v5.715c0 .714-2.857 2.857-3.571 2.857H46.654c-1.19-.238-3.57-.286-3.57 1.428v5l-2.858.715c-.714.476-2.143 1.571-2.143 2.143 0 .714-.714 2.142 0 2.857.714.714 2.143 1.428 2.857 2.143s2.143 0 2.143.714v2.857c0 .571.476 2.143.714 2.857.476.476 1.572 1.429 2.143 1.429.572 0 1.667.476 2.143.714v2.143c0 .571.952 2.143 1.428 2.857.715.476 2.43 1.429 3.572 1.429 1.428 0 13.571 1.428 15.714 1.428 1.715 0 7.381-.952 10-1.428l5-3.572 7.143-1.428h4.286l2.857-1.429v-3.571l.714-15-1.428-2.858h-5c-.572 0-3.096-1.904-4.286-2.857-.953-.714-2.857-2.285-2.857-2.857 0-.571-4.286-2.619-6.429-3.571l-2.857-.715H63.083M37.367 12.408v17.143l5.715-2.143 2.142-1.428 7.143 3.571 2.143-2.143-.714-13.571-2.143-1.429H37.367"/><path stroke="#000" stroke-linecap="round" stroke-linejoin="round" stroke-width="1.429" d="M63.082 32.408v5.715m0-5.715v5.715m0-5.715h2.142m-2.142 5.715c0 .714-2.858 2.857-3.572 2.857m5.714-8.572H75.94l2.857.715c2.143.952 6.428 3 6.428 3.571s1.905 2.143 2.858 2.857c1.19.953 3.714 2.857 4.285 2.857m-27.143-10h-2.857M59.51 40.98H46.653m12.857 0H46.653m0 0c-1.19-.238-3.571-.286-3.571 1.428m0 0v5m0-5v5m0 0-2.858.715c-.714.476-2.142 1.571-2.142 2.143 0 .714-.715 2.142 0 2.857.714.714 2.142 1.428 2.857 2.143.714.714 2.143 0 2.143.714m0 0v2.857m0-2.857v2.857m0 0c0 .571.476 2.143.714 2.857.476.476 1.571 1.429 2.143 1.429s1.666.476 2.142.714m0 0v2.143m0-2.143v2.143m0 0c0 .571.953 2.143 1.429 2.857.714.476 2.429 1.429 3.572 1.429 1.428 0 13.57 1.428 15.714 1.428 1.714 0 7.38-.952 10-1.428l5-3.572 7.143-1.428h4.285l2.858-1.429v-3.571l.714-15-1.429-2.858m0 0h-5m5 0h-5m-55-30v17.143m0-17.143h14.286l2.143 1.429.714 13.571-2.143 2.143-7.143-3.571-2.142 1.428-5.715 2.143m0-17.143v17.143"/><path fill="#3BB77E" d="M96.136 40.383h-2.774c-2.324-.107-4.193-2.086-6.356-4.377-1.445-1.53-2.992-3.169-4.856-4.383V15.12a5.28 5.28 0 0 0-5.27-5.271H13.91A5.277 5.277 0 0 0 8.64 15.12v13.392a1.93 1.93 0 1 0 3.86 0V15.12c0-.764.647-1.41 1.411-1.41h21.363v17.08a1.93 1.93 0 0 0 2.953 1.637l7.17-4.481 7.165 4.481a1.93 1.93 0 0 0 2.954-1.637V13.71H76.88c.765 0 1.41.646 1.41 1.41v14.866a10.6 10.6 0 0 0-1.984-.223H65.364c-2.327.037-3.523 1.092-4.116 1.97-.921 1.364-1.006 3.21-.241 5.199q.268.697.645 1.315H47.014a5.71 5.71 0 0 0-5.398 7.553h-.512a5.71 5.71 0 0 0-5.704 5.704 5.71 5.71 0 0 0 5.704 5.705h.51a5.714 5.714 0 0 0 5.096 7.545 5.71 5.71 0 0 0 5.396 7.555h23.919c.823 0 1.573-.1 2.264-.274v6.05c0 .767-.646 1.416-1.41 1.416H32.163c.378-1.35.585-2.77.585-4.237 0-8.648-7.035-15.684-15.683-15.684-1.587 0-3.12.24-4.565.68V45.868a1.93 1.93 0 0 0-3.86 0v16.179c-4.36 2.789-7.257 7.67-7.257 13.217 0 8.65 7.035 15.689 15.683 15.689 5.688 0 10.677-3.045 13.427-7.591H76.88a5.28 5.28 0 0 0 5.272-5.277v-7.949c.426-.304.834-.617 1.229-.922 1.705-1.313 3.177-2.448 5.521-2.448h7.235a4.09 4.09 0 0 0 4.089-4.083V44.472a4.093 4.093 0 0 0-4.089-4.089m-44.48-13.077-5.234-3.274a1.93 1.93 0 0 0-2.047 0l-5.24 3.275V13.71h12.52zm-34.59 59.786c-6.519 0-11.822-5.306-11.822-11.828 0-6.519 5.303-11.823 11.822-11.823s11.822 5.304 11.822 11.823c0 6.522-5.304 11.828-11.822 11.828m79.298-24.409a.23.23 0 0 1-.228.222h-7.235c-3.66 0-5.9 1.727-7.878 3.251-1.662 1.28-2.974 2.292-4.998 2.292H52.107a1.845 1.845 0 0 1-1.843-1.843c0-1.017.827-1.843 1.843-1.843h6.408a1.93 1.93 0 0 0 0-3.861H47.014a1.845 1.845 0 0 1 0-3.692h11.501a1.93 1.93 0 1 0 0-3.861h-17.41a1.845 1.845 0 0 1-1.844-1.844c0-1.016.827-1.843 1.843-1.843h17.411a1.93 1.93 0 1 0 0-3.86H47.014a1.845 1.845 0 0 1 0-3.692h28.53a1.93 1.93 0 1 0 0-3.862h-6.99a4.19 4.19 0 0 1-3.943-2.7c-.367-.955-.267-1.499-.163-1.653.105-.155.482-.26.963-.27h10.843c3.255.066 5.533 2.479 7.945 5.033 2.523 2.673 5.133 5.436 9.048 5.586l.074.001h2.816a.23.23 0 0 1 .227.228z"/><path fill="#3BB77E" d="M10.571 39.123c1.066 0 1.93-.87 1.93-1.936a1.93 1.93 0 1 0-3.86 0v.011c0 1.066.864 1.925 1.93 1.925"/></g></g></g></g><defs><clipPath id="a"><path fill="#fff" d="M.223.98h100v100h-100z"/></clipPath><clipPath id="b"><path fill="#fff" d="M.223.98h100v100h-100z"/></clipPath><clipPath id="c"><path fill="#fff" d="M.223.98h100v100h-100z"/></clipPath></defs></svg>
